X: 22495
T: Lady Dillon
R: jig
M: 6/8
K: Gmajor
|:ded dBG|g3 f2e|ded dBG|c3 B2A|
Bcd ded|c3 B2A|ABA AFD|G3 G3:|
|:Bcd ded|FGA ABc|BAG FGA|D3 D2c|
BGd BGd|ecg ecg|BAG F/G/AF|G3 G3:|

